X:1
T:Albert, 87.87.77
T:Albert, 87.87.77
T:Heinrich Albert, 1643
T:Public Domain Courtesy of the Cyber Hymnal™
C:Heinrich Albert, 1643
Z:Public Domain
Z:Courtesy of the Cyber Hymnal™
%%score ( 1 2 ) ( 3 4 )
L:1/8
Q:1/4=110
M:2/4
K:G
V:1 treble 
V:2 treble 
V:3 bass 
V:4 bass 
V:1
 G2 [FA]2 | [DB]2 [Dd]2 | G2 [DF]2 | E4 | D4 | E2 [DF]2 | [DG]2 [DA]2 | [DB]2 [DA]2 | [B,G]4 | %9
 G2 [FA]2 | [DB]2 [Dd]2 | G2 [DF]2 | E4 | [A,D]4 | [CE]2 [DF]2 | [DG]2 [DA]2 | [DB]2 [DA]2 | %17
 [B,G]4 | [DB]2 [DB]2 | [DA]2 [DB]2 | [Cc]2 [DB]2 | [DA]4 | E2 [DF]2 | [DG]2 [DA]2 | [DB]2 [DA]2 | %25
 [B,G]4 |] %26
V:2
 G2 x2 | x4 | (B,^C) x2 | (D2 ^C2) | D4 | E2 x2 | x4 | x4 | x4 | G2 x2 | x4 | (B,^C) x2 | %12
 (D2 ^C2) | x4 | x4 | x4 | x4 | x4 | x4 | x4 | x4 | x4 | E2 x2 | x4 | x4 | x4 |] %26
V:3
 [G,B,]2 [D,A,]2 | G,2 [F,A,]2 | [E,G,]2 [F,A,]2 | [G,B,]2 A,2 | [D,F,]4 | [C,G,]2 [C,A,]2 | %6
 [B,,G,]2 [A,,F,]2 | [G,,G,]2 [D,F,]2 | [G,,G,]4 | [G,B,]2 [D,A,]2 | G,2 [F,A,]2 | %11
 [E,G,]2 [F,A,]2 | [G,B,]2 A,2 | [D,F,]4 | [C,G,]2 [C,A,]2 | [B,,G,]2 [A,,F,]2 | [G,,G,]2 [D,F,]2 | %17
 [G,,G,]4 | [G,,G,]2 [B,,G,]2 | F,2 [B,,G,]2 | [A,,E,]2 G,2 | [D,F,]4 | [C,G,]2 [C,A,]2 | %23
 [B,,G,]2 [A,,F,]2 | [G,,G,]2 [D,F,]2 | [G,,G,]4 |] %26
V:4
 x4 | G,2 x2 | x4 | x2 (A,A,,) | x4 | x4 | x4 | x4 | x4 | x4 | G,2 x2 | x4 | x2 (A,A,,) | x4 | x4 | %15
 x4 | x4 | x4 | x4 | (D,C,) x2 | x2 (B,,C,) | x4 | x4 | x4 | x4 | x4 |] %26

